Vector/symbolic/devices/input-gaming-symbolic.svg

<svg xmlns="http://www.w3.org/2000/svg" width="16" height="16"><path d="M7 1c-.55 0-1 .44-1 1v3l2 2 2-2V2c0-.56-.45-1-1-1zM2 6c-.55 0-1 .45-1 1v2c0 .55.45 1.01 1 1h3l2-2-2-2zm9 0L9 8l2 2h3c.55 0 1-.45 1-1V7c0-.55-.45-1-1-1zM8 9l-2 2v3c0 .55.45 1 1 1h2c.55 0 1-.45 1-1v-3z" fill="#555555"/></svg>

<svg xmlns="http://www.w3.org/2000/svg" width="16" height="16" version="1.1">
 <path style="fill:#444444" d="M 7,1 C 6.45,1 6,1.44 6,2 V 5 L 8,7 10,5 V 2 C 10,1.44 9.55,1 9,1 Z M 2,6 C 1.45,6 1,6.45 1,7 V 9 C 1,9.55 1.45,10.01 2,10 H 5 L 7,8 5,6 Z M 11,6 9,8 11,10 H 14 C 14.55,10 15,9.55 15,9 V 7 C 15,6.45 14.55,6 14,6 Z M 8,9 6,11 V 14 C 6,14.55 6.45,15 7,15 H 9 C 9.55,15 10,14.55 10,14 V 11 Z"/>
</svg>
